X:1
T:Oblaku
T:dr. Benjamin Ipavec
T:Anton Aškerc
T:Oblaku
T:Copyright © 
T:Copyright © 
T:Copyright © 
T:Copyright © 
C:dr. Benjamin Ipavec
Z:Anton Aškerc
Z:Copyright ©
%%score 1 { ( 2 5 ) | ( 3 4 ) }
L:1/8
Q:1/4=100
M:2/4
K:G
V:1 treble nm="Voice" snm="Voice"
V:2 treble nm="Piano" snm="Pno."
V:5 treble 
V:3 bass 
V:4 bass 
V:1
"^Allegretto" z | z4 | z4 | z4 |"^rit." z3"^A tempo" B | AB AG | F2 z A | BB d>_B | B2 z B | %9
w: ||||Pod|ne- bom gre o-|blak, o-|blak ko ptič le-|gak; čez|
 Ae dc | (Be) d^c |!f! BB d>_B | B2 z2 | z2 z!p! B | B3 D | E>B Ac | c3 _E | D>c B (B/c/) | %18
w: go- re, čez do-|li- * ne po-|di- ga se- ver-|jak.|O-|bla- ček|be- li moj! Pač|plul boš|nad vas- joj, v\_do- *|
 d=F FF |"^rit." =FE z (^c/d/) | eF Fe | ^d2 !fermata!z!p! (F | ^d>)B B^c | ^d2 z ^F | ^d>B B^c | %25
w: li- ni tam glo-|bo- ki po- *|stoj nad njoj, po-|stoj! Na|hi- šo sred va-|si z\_vi-|ša- ve se o-|
 ^d2 z!pp! F | B>B B^c | =dd z d |"^rit." ^c^G c>B | ^A2"^a tempo" z2 | z4 |"^rit." z4 | z4 | %33
w: zri! Ne-|ma- ra da pred|hi- šoj tam|ne- kdo zdaj se-|di.||||
 z3!mf!"^a tempo" B | B3 D | E>B Ac | c3 E | ^D>c BB |!<(! Be d!<)!c | B2 B (G/A/) | %40
w: Če|vi- del|boš o- braz v\_o-|kvi- ru|zla- tih las, glej,|v\_du- ši sem ga|no- sil o- *|
 B!>(!B d>!>)!^A | B2 z!f! B | Be dc | B2 B (G/A/) |!>(! BB d>!>)!^F | =G3 z | z4 | z4 | %48
w: braz ta ne- kdaj|jaz. Glej,|v\_du- ši sem ga|no- sil o- *|braz ta ne- kdaj|jaz.|||
"^rit." z4 | z4 |] %50
w: ||
V:2
"^Allegretto" z/ [B,G]/ | z/!<(! [CF][B,G][CF][=Fc]/ | z/ [^EB][Ec][EB]!<)![Ed]/ | %3
 z/ [E^c][_Bg][A=f][Ge]/ | z/ [Fd][G^c]"^A tempo"!fermata![A=c]/ z/ [DB]/ | %5
 z/ [DA]/z/[DB]/z/[DA]/z/[DG]/ | z/ [DF]/z/[DG]/z/[D^G]/z/[DA]/ | %7
 z/ [DB]/z/[D^EB]/z/[DFd]/z/[DF^A]/ | z ([GB]/[DG]/) z ([=AB]/[^DF]/) | %9
 z ([GB]/[=EG]/) z ([Ac]/[EA]/) | z ([GB]/[EG]/) z ([B^c]/[GB]/) | z ([FBd]/D/) z ([E^^F^A]/C/) | %12
 z/ ([DF]/B/[DF]/) z/ ([EG]/[G^c]/[EG]/) |!>(! z/ ([DF]/[Bd]/[DF]/)!>)! z/ ([DF]/[FB]/[DF]/) | %14
 z/ (B,/D/A/) (G/D/B,) | z/ (C/E/B/) (A/E/C) | z/ (_E/=F/d/) (c/A/F/E/) | z/ (=F/G/e/) (d/B/G/F/) | %18
 z/ (D/=F/c/) (B/^G/F/D/) | z/ (A,/^C/=F/) (E/C/-C) | z/ (^C/E/G/) (F/E/-)E | %21
 z/ (^D/F/B/-) [B^d] ([=df]/b/) | [^df][df][df][^ce] | [B^d]>[^ce] [df]([df]/b/) | %24
 [^df][df][df][^ce] | [B^d]2 z ([=df]/b/) | [df][df][df][^ce] | ([Bd]/F/B/d/) z/ (F/B/d/) | %28
 z/ (F/B/^c/) z/ (^E/B/c/) | z/ ^C/-F/-^A/- [CFA^c] ([Ac]/"^a tempo"f/) | [^A^c][Ac][Ac][^GB] | %31
 [F^A]>[^GB] [A^c] (=c/a/) | [^A^c][Ac][Ac][^GB] | [FA]>[FB] [Fc]"^a tempo"B- | %34
 ([GB]/B,/D/A/) (G/D/B,) | z/ (C/E/B/) (A/E/C) | z/ (E/G/d/) (c/G/E) | z/ (^D/F/c/) (B/F/D) | %38
 z ([GB]/[EG]/) z ([Ac]/[EA]/) | z ([GB]/[EG]/) z ([GB]/[EG]/) | z ([GB]/[DG]/) z ([Fd]/[F^A]/) | %41
 z/!<(! ([B,DG]/[DGB]/[B,DG]/)!<)!!f! z/ ([B,DG]/[DGB]/[B,DG]/) | %42
 z/ ([EB]/[^Ge]/[EB]/) z/ ([CA]/[Ec]/[CA]/) | z/ ([A,F]/[^DB]/[A,F]/) z/ ([EG]/[B,B]/[EG]/) | %44
!>(! z/ ([DB]/[=Fd]/[DB]/) z/ ([CA]/[^Fc]/!>)![CA]/) | ([B,G]/B,/D/G/-) [GB]([Bd]/f/) | %46
 [Bd][Bd][Bd][Ac] | ([GB]>[Ac]) [Bd]2- | [Bd]/[GB][GB][GB][G_e]/- | %49
 [Ge]/[Gd][Gd]/- !fermata![Gd]2 |] %50
V:3
!p! D, | _E,D,E,_A, | G,_A,G,^G, | A,^CD[^C,_B,] | [D,A,][E,A,]!fermata![F,D]G, | F,G,F,E, | %6
 D,E,^E,F, | G,^G,A,D, | G,/A,/ z F,/B,/ z | [E,G,]/B,/ z [E,F,]/A,/ z | %10
 [E,G,]/B,/ z [E,B,]/^C/ z |!f! F,/B,/ z F,,2 |{/B,,} B,B,{/B,,} D>^A, | [B,,B,]2!p! B,>A, | %14
 G,7/2 F,/ | E,7/2 D,/ | A,7/2 C/ | [G,,=F,B,]4 | [^G,,=F,]4 | E,3 A,/E,/ | F,3 C/F,/ | %21
 [F,B,-]2!p! B,/!fermata!FF/- | F/FFF!>!G/ | z/ FFFF/- | F/FFFG/ | z/ FFFF/- | F/FFFG/ | FB, A,2 | %28
 ^G,2 B,2 | [F,,^C,^A,]2- [F,,C,A,]/[F,^C]/-[F,C-] | C/^CCCD/ | z/ ^C/CE^D | =F,/_EEE=D/ | %33
 _E,/=CC/ [D,A,D]!mf! x | G,7/2 F,/ | ^E,7/2 A,/ | [E,G,]7/2 A,/- | A,7/2 B,/ | %38
!<(! [E,G,]/B,/ z [E,F,]/!<)!A,/ z | G,/B,/ z E,/^C/ z | D,/!>(!G,/ z D,/=C/!>)! z | %41
 [G,,D,G,]2 [=F,,D,=F,]2 | [E,,D,^G,]2 [A,,E,A,]2 | [^D,,B,,F,]2 [E,,B,,E,][^C,G,] | G,^G, A,A, | %45
 z2 z/!p! DD/- | D/DDD_E/ | z/ DD/-!pp! D>G | !>!D!>!D!>!D!>!C | !fermata!B,4 |] %50
V:4
 G,,- | G,,4 | G,,3 z | x4 | x4 | x4 | x4 | x4 | x4 | x4 | x4 | x4 | x4 | x4 | [G,,D,]4 | G,,4 | %16
 [G,,D,]4 | x4 | x4 | A,,4 | ^A,,4 | x2 z2 | B,4 | B,4 | B,4 | B,4 | B,4 | B,B,,- B,,2 | ^C,4 | %29
 x4 | F,4 | F,4 | =F,4 | x3 [G,,D,]- | [G,,D,]4 | G,,4 | G,,4- | G,,2 [B,,F,]2 | x4 | x4 | x4 | %41
 x4 | x4 | x4 | D,3 D, | =G,4- | G,4 | G,4- | G,4 | !>!!fermata!G,4 |] %50
V:5
 x | x4 | x4 | x4 | x4 | x4 | x4 | x4 | x4 | x4 | x4 | x4 | x4 | x4 | x4 | x4 | x4 | x4 | x4 | x4 | %20
 x4 | x4 | x4 | x4 | x4 | x4 | x4 | x4 | x4 | x4 | x4 | x2 x =A | x4 | x4 | x4 | x4 | x4 | x4 | %38
 x4 | x4 | x4 | x4 | x4 | x4 | x4 | x4 | x4 | x4 | x4 | x4 |] %50

